X: 30
T:Mon
M:2/4
L:1/8
Q:130
C:Trad
S:Blodau'r Grug Collection Vol. 2
A:Wales
Z:brian_martin12345@yahoo.com
K:D
A|d>d AA|FA de/f/|g>f ed|e>d c/B/A|d>d AA|FA dd/e/|ff ee|d3:||!
d/e/|f>f dd|ee cc|de/f/|gf|e>d c/B/A|d>d AA|FA dd/e/|ff ee|d3:||

